X: 24150
T: Looking Glass, The
R: reel
M: 4/4
K: Gdorian
G3 A BcdB|c3d fgaf|gd~d2bdad|gfdc BG~G2|
BgdB AfcA|BGAF GFDE|F2AF cFAF|1 CDFG AGGF:|2 CDFG AGG2||
g2dg bgdg|fefg afgf|eg~g2 egcg|fefg agga|
bgdg bgdg|fdcB AFFA|BgdB AfcA|1 BGAF G2 (3ggg:|2 BGAF GFDF||

